Sources/FrostedUI/Resources/Icons.xcassets/dashboard20.imageset/dashboard-20.svg

<svg width="20" height="20" viewBox="0 0 20 20" fill="none" xmlns="http://www.w3.org/2000/svg" data-fui-icon="true">
  <path
    d="M10 0.916992C12.2645 0.916992 13.5887 0.906101 14.6748 1.28613C16.5657 1.94789 18.0522 3.43524 18.7139 5.32617C19.0937 6.41214 19.084 7.73584 19.084 10C19.084 12.2644 19.0939 13.5888 18.7139 14.6748C18.0521 16.5655 16.5655 18.0522 14.6748 18.7139C13.5887 19.0939 12.2645 19.084 10 19.084C7.73579 19.084 6.41216 19.0938 5.32617 18.7139C3.43526 18.0522 1.94791 16.5657 1.28613 14.6748C0.906108 13.5888 0.916991 12.2644 0.916992 10C0.916991 7.73589 0.906281 6.41213 1.28613 5.32617C1.94784 3.43513 3.43513 1.94784 5.32617 1.28613C6.41216 0.906228 7.73579 0.916991 10 0.916992ZM10 2.41699C7.61014 2.41699 6.60615 2.42754 5.82129 2.70215C4.36118 3.21309 3.21309 4.36118 2.70215 5.82129C2.42759 6.60613 2.41699 7.61028 2.41699 10C2.41699 12.3899 2.42751 13.3948 2.70215 14.1797C3.21321 15.6395 4.36136 16.788 5.82129 17.2988C6.60611 17.5734 7.61038 17.584 10 17.584C12.39 17.584 13.3948 17.5735 14.1797 17.2988C15.6395 16.7879 16.7878 15.6395 17.2988 14.1797C17.5735 13.3948 17.584 12.3899 17.584 10C17.584 7.61045 17.5733 6.6061 17.2988 5.82129C16.788 4.36134 15.6395 3.2132 14.1797 2.70215C13.3948 2.42751 12.39 2.41699 10 2.41699ZM14.4697 7.38672C14.7626 7.09383 15.2374 7.09383 15.5303 7.38672C15.823 7.67962 15.8231 8.15442 15.5303 8.44727L11.9531 12.0244C11.3348 12.6425 10.3321 12.6425 9.71387 12.0244L7.97559 10.2861C7.94305 10.2538 7.8899 10.2537 7.85742 10.2861L5.53027 12.6143C5.23746 12.9067 4.76253 12.9067 4.46973 12.6143C4.17695 12.3215 4.17718 11.8466 4.46973 11.5537L6.79688 9.22559C7.41513 8.60739 8.41781 8.6075 9.03613 9.22559L10.7744 10.9639C10.8069 10.9962 10.8601 10.9962 10.8926 10.9639L14.4697 7.38672Z"
    fill="currentColor"
  />
</svg>

<svg xmlns="http://www.w3.org/2000/svg" width="20" height="20" fill="none" data-fui-icon="true" viewBox="0 0 20 20"><path fill="currentColor" d="M10 .917c2.265 0 3.589-.01 4.675.37a6.58 6.58 0 0 1 4.039 4.04c.38 1.085.37 2.409.37 4.673s.01 3.589-.37 4.675a6.58 6.58 0 0 1-4.04 4.039c-1.085.38-2.41.37-4.674.37s-3.588.01-4.674-.37a6.58 6.58 0 0 1-4.04-4.04C.906 13.59.917 12.265.917 10s-.01-3.588.37-4.674a6.59 6.59 0 0 1 4.04-4.04C6.411.906 7.735.917 10 .917m0 1.5c-2.39 0-3.394.01-4.179.285a5.08 5.08 0 0 0-3.119 3.12c-.274.784-.285 1.788-.285 4.178s.01 3.395.285 4.18a5.09 5.09 0 0 0 3.12 3.119c.784.274 1.788.285 4.178.285s3.395-.01 4.18-.285a5.09 5.09 0 0 0 3.119-3.12c.274-.784.285-1.79.285-4.179s-.01-3.394-.285-4.179a5.09 5.09 0 0 0-3.12-3.119c-.784-.274-1.789-.285-4.179-.285m4.47 4.97a.75.75 0 1 1 1.06 1.06l-3.577 3.577a1.584 1.584 0 0 1-2.24 0l-1.737-1.738a.084.084 0 0 0-.119 0L5.53 12.614a.75.75 0 0 1-1.06-1.06l2.327-2.328a1.584 1.584 0 0 1 2.24 0l1.737 1.738a.084.084 0 0 0 .119 0z"/></svg>
